svgs/icons/sm/cafe.svg

<svg xmlns="http://www.w3.org/2000/svg" viewBox="0 0 16 16" enable-background="new 0 0 16 16"><g fill="#34363D"><path d="M1 13.4c0 .9.6 1.6 1.4 1.6h11.2c.8 0 1.4-.7 1.4-1.6v-.4h-14v.4zM14.4 3h-1.4v-1h-10v7.9c0 1.2 1.2 2.1 2.5 2.1h4.9c1.3 0 2.5-.9 2.5-2 1.7-.2 3-1.6 3-3.3v-2.3c.1-.9-.6-1.4-1.5-1.4zm.6 3.7c0 1.2-.9 2.1-2 2.3v-5h1.4c.2 0 .6 0 .6.4v2.3z"/></g></svg>

<svg xmlns="http://www.w3.org/2000/svg" viewBox="0 0 16 16"><path d="M1 13.4c0 .9.6 1.6 1.4 1.6h11.2c.8 0 1.4-.7 1.4-1.6V13H1v.4zM14.4 3H13V2H3v7.9C3 11.1 4.2 12 5.5 12h4.9c1.3 0 2.5-.9 2.5-2 1.7-.2 3-1.6 3-3.3V4.4c.1-.9-.6-1.4-1.5-1.4zm.6 3.7c0 1.2-.9 2.1-2 2.3V4h1.4c.2 0 .6 0 .6.4v2.3z" fill="#34363D"/></svg>
